contributed-vectors/synology_ds_cam.svg

<?xml version="1.0" encoding="utf-8"?>
<!-- Generator: Adobe Illustrator 17.1.0, SVG Export Plug-In . SVG Version: 6.00 Build 0)  -->
<!DOCTYPE svg PUBLIC "-//W3C//DTD SVG 1.1//EN" "http://www.w3.org/Graphics/SVG/1.1/DTD/svg11.dtd">
<svg version="1.1" id="Слой_1" xmlns="http://www.w3.org/2000/svg" xmlns:xlink="http://www.w3.org/1999/xlink" x="0px" y="0px"
	 viewBox="0 0 192 192" enable-background="new 0 0 192 192" xml:space="preserve">
<rect fill="#54688C" width="192" height="192"/>
<g>
	<path fill="#FFFFFF" d="M139.3,121.6c0,5.1,0,9.7,0,14.4c0,4.9-3.1,8.1-8.1,8.1c-28.4,0-56.9,0-85.3,0c-4.9,0-8.1-3.1-8.1-8.1
		c0-26.7,0-53.4,0-80.1c0-4.9,3.1-8,8.1-8c28.4,0,56.8,0,85.1,0c5.2,0,8.2,3.1,8.2,8.3c0,4.9,0,9.9,0,14.8c0,0.1,0,0.2,0.1,0.7
		c2.2-1.9,4.2-3.7,6.3-5.3c1.6-1.2,3.3-2.4,5.1-3c7-2.1,13.9,3.1,13.9,10.5c0.1,14.7,0.1,29.4,0,44.1c0,8.3-8.9,13.5-16.2,9.5
		c-2.6-1.4-5-3.1-7.4-4.7C140.6,122.4,140.1,122.1,139.3,121.6z M48.6,133.3c26.7,0,53.3,0,79.8,0c0-24.9,0-49.8,0-74.6
		c-26.7,0-53.2,0-79.8,0C48.6,83.6,48.6,108.4,48.6,133.3z M153.9,118.2c0-15,0-29.6,0-44.3c-0.4,0.2-0.7,0.3-1,0.5
		c-4.3,3.7-8.7,7.3-13,11.1c-0.5,0.4-0.7,1.3-0.7,1.9c-0.1,6.6,0,13.2-0.1,19.8c0,1.2,0.4,1.8,1.4,2.4c3.1,2,6.2,4,9.3,6
		C151.1,116.4,152.4,117.2,153.9,118.2z"/>
	<path fill="#FFFFFF" d="M88.5,73c6.9,0,13.9,0,20.8,0c7,0,12.3,5.3,12.3,12.1c0,6.8-5.4,12.1-12.4,12.1c-13.9,0-27.7,0-41.6,0
		c-6.3,0-11.7-4.7-12.2-10.7c-0.6-6.5,3.5-12,9.8-13.3c0.8-0.2,1.7-0.2,2.6-0.2C74.7,73,81.6,73,88.5,73z M88.4,91.8
		c6.9,0,13.7,0,20.6,0c5,0,8.2-4.1,6.9-8.6c-0.9-2.9-3.5-4.7-7.1-4.7c-10.4,0-20.8,0-31.3,0c-3.2,0-6.5-0.1-9.7,0
		c-4.8,0.2-7.9,4.4-6.4,8.8c0.9,2.8,3.5,4.5,6.9,4.5C74.9,91.8,81.6,91.8,88.4,91.8z"/>
</g>
</svg>

<svg xmlns="http://www.w3.org/2000/svg" xml:space="preserve" viewBox="0 0 192 192"><path fill="#54688C" d="M0 0h192v192H0z"/><g fill="#FFF"><path d="M139.3 121.6V136c0 4.9-3.1 8.1-8.1 8.1H45.9c-4.9 0-8.1-3.1-8.1-8.1V55.9c0-4.9 3.1-8 8.1-8H131c5.2 0 8.2 3.1 8.2 8.3V71c0 .1 0 .2.1.7 2.2-1.9 4.2-3.7 6.3-5.3 1.6-1.2 3.3-2.4 5.1-3 7-2.1 13.9 3.1 13.9 10.5.1 14.7.1 29.4 0 44.1 0 8.3-8.9 13.5-16.2 9.5-2.6-1.4-5-3.1-7.4-4.7-.4-.4-.9-.7-1.7-1.2zm-90.7 11.7h79.8V58.7H48.6v74.6zm105.3-15.1V73.9c-.4.2-.7.3-1 .5-4.3 3.7-8.7 7.3-13 11.1-.5.4-.7 1.3-.7 1.9-.1 6.6 0 13.2-.1 19.8 0 1.2.4 1.8 1.4 2.4l9.3 6c1.3.8 2.6 1.6 4.1 2.6z"/><path d="M88.5 73h20.8c7 0 12.3 5.3 12.3 12.1s-5.4 12.1-12.4 12.1H67.6c-6.3 0-11.7-4.7-12.2-10.7-.6-6.5 3.5-12 9.8-13.3.8-.2 1.7-.2 2.6-.2h20.7zm-.1 18.8H109c5 0 8.2-4.1 6.9-8.6-.9-2.9-3.5-4.7-7.1-4.7H77.5c-3.2 0-6.5-.1-9.7 0-4.8.2-7.9 4.4-6.4 8.8.9 2.8 3.5 4.5 6.9 4.5h20.1z"/></g></svg>
